packages/core/src/svgs/bob.svg

<svg width="24" height="24" viewBox="0 0 24 24" fill="none" xmlns="http://www.w3.org/2000/svg">
<g clip-path="url(#clip0_31_7255)">
<path d="M0 0H24V24H0V0Z" fill="#062C49"/>
<path d="M9.30428 9.8123C8.35457 10.0022 7.17643 9.28001 8.54443 7.15216C9.91243 5.0243 12.408 4.99901 13.4846 5.2523C14.8774 5.69544 17.3606 7.38016 16.1443 10.5722C15.5366 11.6363 15.0043 11.902 14.8144 11.902C17.31 12.5676 17.4094 15.7532 15.5743 17.2219C14.4304 18.1377 12.7123 18.253 11.4891 17.1692C11.1176 18.052 10.461 18.5522 9.30428 18.5522C6.387 18.5522 6.64457 15.7022 8.16428 15.7022C8.85 15.7022 8.92457 16.6519 8.92457 17.2219C8.92457 17.6779 10.0731 17.9822 10.2626 16.2722C10.3166 15.5204 10.3136 14.782 10.3106 14.0603C10.302 11.7409 10.4756 9.59116 12.3441 7.72216C13.0753 6.99101 13.6744 7.34201 13.2943 7.72216C12.8511 8.22101 12.1654 9.67944 12.0009 11.8694C12.366 11.8129 13.0839 11.6877 13.4846 11.5223C15.483 10.6943 15.0047 6.77201 13.1044 6.20201C11.2046 5.63201 9.87471 6.9623 9.68443 7.15216C9.57514 7.26187 9.47785 7.36944 9.49457 7.5323C9.49457 7.5323 11.0147 9.2423 9.30471 9.8123H9.30428ZM11.9649 12.7686V12.8522C11.9649 14.218 11.9344 15.4022 11.7403 16.3317C12.309 16.8846 13.053 16.9587 13.4846 16.8417C16.278 15.9109 15.0557 11.512 11.9649 12.7686Z" fill="white"/>
</g>
<defs>
<clipPath id="clip0_31_7255">
<rect width="24" height="24" fill="white"/>
</clipPath>
</defs>
</svg>

<svg xmlns="http://www.w3.org/2000/svg" width="24" height="24" fill="none" viewBox="0 0 24 24"><g clip-path="url(#a)"><path fill="#062C49" d="M0 0h24v24H0z"/><path fill="#fff" d="M9.304 9.812c-.95.19-2.128-.532-.76-2.66s3.864-2.153 4.94-1.9c1.393.443 3.877 2.128 2.66 5.32-.607 1.064-1.14 1.33-1.33 1.33 2.496.666 2.595 3.851.76 5.32-1.144.916-2.862 1.031-4.085-.053-.371.883-1.028 1.383-2.185 1.383-2.917 0-2.66-2.85-1.14-2.85.686 0 .76.95.76 1.52 0 .456 1.15.76 1.339-.95.054-.752.05-1.49.048-2.212-.009-2.32.165-4.469 2.033-6.338.731-.731 1.33-.38.95 0-.443.499-1.129 1.957-1.293 4.147.365-.056 1.083-.181 1.484-.347 1.998-.828 1.52-4.75-.38-5.32s-3.23.76-3.42.95c-.11.11-.207.217-.19.38 0 0 1.52 1.71-.19 2.28m2.66 2.957v.083c0 1.366-.03 2.55-.224 3.48.569.553 1.313.627 1.745.51 2.793-.931 1.57-5.33-1.52-4.073"/></g><defs><clipPath id="a"><path fill="#fff" d="M0 0h24v24H0z"/></clipPath></defs></svg>
